X:5414
T:Rag Dolly Anna
O:england
M:4/4
L:1/4
K:D
AB AB|AB>A2|AB AB|A/2 c A/2 cB|A/2B/2c/2A/2 BA|A/2B/2c/2A/2 BA|A/2B/2c/2
d/2 e/2g/2f/2e/2|d3B:|aaag|fff>g|aagf|g3f|g>a g/2f/2e/2f/2|g>a g/2f/2e/2
f/2|g/2f/2e/2d/2 c/2A/2B/2c/2|defg|aaag|fff>e|ddef|g3f|g>a g/2f/2e/2f/2|
g>a g/2f/2e/2f/2|g/2f/2e/2d/2 c/2A/2B/2c/2|dfd2|


